X: 40559
T: Tommy Peoples'
R: reel
M: 4/4
K: Gmajor
|:G2BG cGBG|ADD2 FGAF|G2BG cGBG|Addc AGFA:|
|:g2dg egdg|g2bg agef|g2dg egdB|cBAc BGG2:|

